src/lib/packages/icons/src/assets/filled/box-search.svg

<svg width="24" height="24" viewBox="0 0 24 24" fill="none" xmlns="http://www.w3.org/2000/svg">
<path d="M9.47998 11.15C9.72998 11.26 9.99 11.33 10.25 11.39V20.91C10.09 20.87 9.93003 20.81 9.78003 20.74L3.78003 18.07C2.70003 17.59 2 16.52 2 15.33V8.67C2 8.4 2.03999 8.12999 2.10999 7.87999L9.47998 11.15ZM19.13 6.55999C18.87 6.29999 18.57 6.07998 18.22 5.92998L12.22 3.26C11.44 2.91 10.56 2.91 9.78003 3.26L3.78003 5.92998C3.43003 6.07998 3.13 6.29999 2.87 6.55999L10.08 9.76998C10.66 10.03 11.33 10.03 11.92 9.76998L19.13 6.55999ZM16.701 11.893C17.733 11.65 18.7139 11.728 19.5959 12.032C19.7939 12.1 20 11.966 20 11.756V8.67C20 8.4 19.96 8.12999 19.89 7.87999L12.52 11.15C12.27 11.25 12.01 11.33 11.75 11.39V20.91C11.768 20.922 11.768 20.922 11.786 20.934L13.479 20.178C13.651 20.101 13.702 19.893 13.598 19.737C12.875 18.656 12.567 17.283 12.86 15.838C13.251 13.909 14.786 12.344 16.701 11.893ZM22.53 21.529C22.384 21.675 22.192 21.749 22 21.749C21.808 21.749 21.616 21.676 21.47 21.529L19.92 19.979C19.343 20.357 18.657 20.582 17.917 20.582C15.895 20.582 14.25 18.937 14.25 16.915C14.25 14.893 15.895 13.248 17.917 13.248C19.938 13.248 21.583 14.893 21.583 16.915C21.583 17.655 21.359 18.342 20.981 18.918L22.531 20.468C22.823 20.761 22.823 21.236 22.53 21.529ZM20.083 16.916C20.083 15.721 19.111 14.749 17.917 14.749C16.722 14.749 15.75 15.721 15.75 16.916C15.75 18.111 16.722 19.083 17.917 19.083C19.111 19.082 20.083 18.11 20.083 16.916Z" fill="currentColor"/>
</svg>

<svg xmlns="http://www.w3.org/2000/svg" width="24" height="24" fill="none"><path fill="currentColor" d="M9.48 11.15c.25.11.51.18.77.24v9.52c-.16-.04-.32-.1-.47-.17l-6-2.67A2.996 2.996 0 0 1 2 15.33V8.67c0-.27.04-.54.11-.79l7.37 3.27Zm9.65-4.59c-.26-.26-.56-.48-.91-.63l-6-2.67c-.78-.35-1.66-.35-2.44 0l-6 2.67c-.35.15-.65.37-.91.63l7.21 3.21c.58.26 1.25.26 1.84 0l7.21-3.21Zm-2.429 5.333a5.157 5.157 0 0 1 2.895.139c.198.068.404-.066.404-.276V8.67c0-.27-.04-.54-.11-.79l-7.37 3.27c-.25.1-.51.18-.77.24v9.52l.036.024 1.693-.756a.296.296 0 0 0 .119-.441c-.723-1.081-1.031-2.454-.738-3.899.391-1.929 1.926-3.494 3.841-3.945Zm5.829 9.636a.748.748 0 0 1-1.06 0l-1.55-1.55a3.642 3.642 0 0 1-2.003.603 3.671 3.671 0 0 1-3.667-3.667 3.671 3.671 0 0 1 3.667-3.667 3.67 3.67 0 0 1 3.666 3.667c0 .74-.224 1.427-.602 2.003l1.55 1.55a.751.751 0 0 1-.001 1.061Zm-2.447-4.613a2.17 2.17 0 0 0-2.166-2.167 2.17 2.17 0 0 0-2.167 2.167 2.17 2.17 0 0 0 2.167 2.167 2.17 2.17 0 0 0 2.166-2.167Z"/></svg>
